X:1
T:Give praises unto God the Lord
T:John Alcock jr.
T:Text: Thomas Norton, on Ps. 105.
T:Edition by Edmund Gooch released into the public domain, May 2015.
T:Give praises unto God the Lord
T:Psalm 105
C:John Alcock jr.
Z:Text: Thomas Norton, on Ps. 105.
%%score [ 1 2 3 4 ]
L:1/8
M:3/2
K:D
V:1 treble nm="SOPRANO" snm="S."
V:2 treble nm="ALTO" snm="A."
V:3 treble-8 transpose=-12 nm="TENOR" snm="T."
V:4 bass nm="BASS" snm="B."
V:1
"^Brisk" (F3 G) | (A4 f4) e4 | d8 B4 | (A4 G2 F2) (E2 A2) | (G4 F4) A4 | (d4 c4) B4 | %6
w: In _|ho- * nour|of his|ho- * * ly _|name _ Re-|joice _ with|
w: Give _|prai- * ses|un- to|God _ _ the _|Lord, _ And|call _ up-|
w: Sing _|joy- * ful-|ly un-|to _ _ the _|Lord, _ Yea,|sing _ un-|
 (A3 B A4) T^G4 | A8 A4 | (A3 G F4) G4 | (A4 B4) c4 | (d4 c2 B2) (A2 G2) | (G4 F4) B4 | %12
w: one _ _ ac-|cord, And|let _ _ the|heart _ al-|so _ _ be _|glad _ Of|
w: on _ _ his|name; A-|mong _ _ the|peo- * ple|all _ _ de- *|clare _ His|
w: to _ _ him|praise; And|talk _ _ of|all _ his|wond- * * rous _|works _ That|
 (A4 B2 c2) d4 | (E2 FG F4) TE4 | !fermata!D8 |] %15
w: them _ _ that|seek _ _ _ the|Lord.|
w: works _ _ to|spread _ _ _ his|fame.|
w: he _ _ hath|wrought _ _ _ al-|ways.|
V:2
 (D3 E) | F8 A4 | D8 D4 | D8 TC4 | D8 E4 | (F3 ^G A4) F4 | (E3 F E4) E4 | E8 F4 | (F3 E D4) E4 | %9
w: In _|ho- nour|of his|ho- ly|name Re-|joice _ _ with|one _ _ ac-|cord, And|let _ _ the|
w: Give _|prai- ses|un- to|God the|Lord, And|call _ _ up-|on _ _ his|name; A-|mong _ _ the|
w: Sing _|joy- ful-|ly un-|to the|Lord, Yea,|sing _ _ un-|to _ _ him|praise; And|talk _ _ of|
 (F4 G4) E4 | D8 TC4 | D8 D4 | (D4 G4) F4 | D8 TC4 | !fermata!D8 |] %15
w: heart _ al-|so be|glad Of|them _ that|seek the|Lord.|
w: peo- * ple|all de-|clare His|works _ to|spread his|fame.|
w: all _ his|wond- rous|works That|he _ hath|wrought al-|ways.|
V:3
 A4 | d8 c4 | A8 B4 | (d4 G4) A4 | A8 c4 | (d4 e4) d4 | (A3 d c4) TB4 | c8 d4 | d8 c4 | d8 c4 | %10
w: In|ho- nour|of his|ho- * ly|name Re-|joice _ with|one _ _ ac-|cord, And|let the|heart al-|
w: Give|prai- ses|un- to|God _ the|Lord, And|call _ up-|on _ _ his|name; A-|mong the|peo- ple|
w: Sing|joy- ful-|ly un-|to _ the|Lord, Yea,|sing _ un-|to _ _ him|praise; And|talk of|all his|
 (A4 B4) e4 | d8 B4 | (d4 G4) A4 | (B4 A6) G2 | (G4 !fermata!F4) |] %15
w: so _ be|glad Of|them _ that|seek _ the|Lord. _|
w: all _ de-|clare His|works _ to|spread _ his|fame. _|
w: wond- * rous|works That|he _ hath|wrought _ al-|ways. _|
V:4
 D,4 | D,8 A,4 | F,8 G,4 | (F,4 E,4) A,,4 | D,8 C,4 | (B,,4 A,,4) D,4 | (C,3 D, E,4) E,4 | %7
w: In|ho- nour|of his|ho- * ly|name Re-|joice _ with|one _ _ ac-|
w: Give|prai- ses|un- to|God _ the|Lord, And|call _ up-|on _ _ his|
w: Sing|joy- ful-|ly un-|to _ the|Lord, Yea,|sing _ un-|to _ _ him|
 A,,8 D,4 | %8
w: cord, And|
w: name; A-|
w: praise; And|
"^Emendations: Clefs in the source are treble, alto, tenor and bass. The first verse only of the text is given in the source,where the vocal bass part is also figured: figuring has been omitted to facilitate the underlaying of three other versesselected from the text. The following notes are printed as small grace notes in the source, and have been writtenout in full in the present edition: bar 4, beat 1, soprano G; bar 11, beat 1, soprano G; bar 14, beat 1, tenor G." D,8 D,4 | %9
w: let the|
w: mong the|
w: talk of|
 D,8 A,4 | (F,4 G,4) A,4 | B,8 G,4 | (F,4 E,4) D,4 | (G,4 A,4) A,,4 | !fermata!D,8 |] %15
w: heart al-|so _ be|glad Of|them _ that|seek _ the|Lord.|
w: peo- ple|all _ de-|clare His|works _ to|spread _ his|fame.|
w: all his|wond- * rous|works That|he _ hath|wrought _ al-|ways.|

